; generated by Slic3r 1.0.1 on 2014-06-07 at 16:17:25

; layer_height = 0.1905
; perimeters = 4
; top_solid_layers = 5
; bottom_solid_layers = 4
; fill_density = 0.4
; perimeter_speed = 35
; infill_speed = 45
; travel_speed = 130
; nozzle_diameter = 0.35
; filament_diameter = 1.75
; extrusion_multiplier = 1
; perimeters extrusion width = 0.35mm
; infill extrusion width = 0.55mm
; solid infill extrusion width = 0.55mm
; top infill extrusion width = 0.55mm
; first layer extrusion width = 0.38mm

G21 ; set units to millimeters
M107
M190 S110 ; wait for bed temperature to be reached
M104 S230 ; set temperature
G28 ; home all axes
G1 Z5 F5000 ; lift nozzle
M109 S230 ; wait for temperature to be reached
G90 ; use absolute coordinates
G92 E000.000
M82 ; use absolute distances for extrusion
G1 F1800.000 E-002.000
G92 E000.000
G1 Z0.191 F7800.000
G1 X90.200 Y89.650 F7800.000
G1 E002.000 F1800.000
G1 X90.750 Y89.160 E002.044 F630.000
G1 X91.210 Y88.790 E002.079
G1 X91.800 Y88.350 E002.122
G1 X92.340 Y87.980 E002.161
G1 X92.970 Y87.600 E002.205
G1 X93.590 Y87.270 E002.246
G1 X94.250 Y86.960 E002.290
G1 X94.850 Y86.710 E002.328
G1 X95.550 Y86.460 E002.372
G1 X96.160 Y86.280 E002.410
G1 X96.870 Y86.100 E002.453
G1 X97.520 Y85.970 E002.493
G1 X98.250 Y85.860 E002.536
G1 X98.970 Y85.790 E002.579
G1 X99.990 Y85.750 E002.640
G1 X101.000 Y85.790 E002.700
G1 X101.740 Y85.860 E002.744
G1 X102.470 Y85.970 E002.788
G1 X103.120 Y86.100 E002.827
G1 X103.830 Y86.280 E002.870
G1 X104.440 Y86.460 E002.908
G1 X105.140 Y86.710 E002.952
G1 X105.740 Y86.960 E002.991
G1 X106.400 Y87.270 E003.034
G1 X107.020 Y87.600 E003.076
G1 X107.650 Y87.980 E003.119
G1 X108.190 Y88.350 E003.158
G1 X109.240 Y89.160 E003.237
G1 X109.790 Y89.650 E003.280
G1 X110.340 Y90.200 E003.327
G1 X110.830 Y90.750 E003.370
G1 X111.200 Y91.210 E003.405
G1 X111.640 Y91.800 E003.449
G1 X112.010 Y92.340 E003.488
G1 X112.390 Y92.970 E003.531
G1 X112.720 Y93.590 E003.573
G1 X113.030 Y94.250 E003.616
G1 X113.280 Y94.850 E003.655
G1 X113.530 Y95.550 E003.699
G1 X113.710 Y96.160 E003.737
G1 X113.890 Y96.870 E003.780
G1 X114.020 Y97.520 E003.819
G1 X114.130 Y98.250 E003.863
G1 X114.200 Y98.890 E003.901
G1 X114.240 Y99.620 E003.945
G1 X114.240 Y100.350 E003.988
G1 X114.200 Y101.090 E004.032
G1 X114.130 Y101.740 E004.071
G1 X114.020 Y102.470 E004.114
G1 X113.890 Y103.120 E004.154
G1 X113.710 Y103.830 E004.197
G1 X113.530 Y104.440 E004.235
G1 X113.280 Y105.140 E004.279
G1 X113.030 Y105.740 E004.317
G1 X112.720 Y106.400 E004.361
G1 X112.390 Y107.020 E004.402
G1 X112.010 Y107.650 E004.446
G1 X111.640 Y108.190 E004.485
G1 X110.830 Y109.240 E004.563
G1 X110.340 Y109.790 E004.607
G1 X109.790 Y110.340 E004.653
G1 X109.240 Y110.830 E004.697
G1 X108.780 Y111.200 E004.732
G1 X108.190 Y111.640 E004.776
G1 X107.650 Y112.010 E004.814
G1 X107.020 Y112.390 E004.858
G1 X106.400 Y112.720 E004.900
G1 X105.740 Y113.030 E004.943
G1 X105.140 Y113.280 E004.981
G1 X104.440 Y113.530 E005.025
G1 X103.830 Y113.710 E005.063
G1 X103.120 Y113.890 E005.107
G1 X102.470 Y114.020 E005.146
G1 X101.740 Y114.130 E005.190
G1 X101.090 Y114.200 E005.228
G1 X100.350 Y114.240 E005.272
G1 X99.620 Y114.240 E005.316
G1 X98.890 Y114.200 E005.359
G1 X98.250 Y114.130 E005.397
G1 X97.520 Y114.020 E005.441
G1 X96.870 Y113.890 E005.480
G1 X96.160 Y113.710 E005.524
G1 X95.550 Y113.530 E005.561
G1 X94.850 Y113.280 E005.606
G1 X94.250 Y113.030 E005.644
G1 X93.590 Y112.720 E005.687
G1 X92.970 Y112.390 E005.729
G1 X92.340 Y112.010 E005.773
G1 X91.800 Y111.640 E005.811
G1 X90.750 Y110.830 E005.890
G1 X90.200 Y110.340 E005.934
G1 X89.650 Y109.790 E005.980
G1 X89.160 Y109.240 E006.024
G1 X88.790 Y108.780 E006.059
G1 X88.350 Y108.190 E006.102
G1 X87.980 Y107.650 E006.141
G1 X87.600 Y107.020 E006.185
G1 X87.270 Y106.400 E006.226
G1 X86.960 Y105.740 E006.269
G1 X86.710 Y105.140 E006.308
G1 X86.460 Y104.440 E006.352
G1 X86.280 Y103.830 E006.390
G1 X86.100 Y103.120 E006.433
G1 X85.970 Y102.470 E006.473
G1 X85.860 Y101.740 E006.516
G1 X85.790 Y101.000 E006.560
G1 X85.760 Y100.260 E006.604
G1 X85.760 Y99.710 E006.637
G1 X85.790 Y98.980 E006.680
G1 X85.860 Y98.250 E006.724
G1 X85.970 Y97.520 E006.768
G1 X86.100 Y96.870 E006.807
G1 X86.280 Y96.160 E006.850
G1 X86.460 Y95.550 E006.888
G1 X86.710 Y94.850 E006.932
G1 X86.960 Y94.250 E006.971
G1 X87.270 Y93.590 E007.014
G1 X87.600 Y92.970 E007.055
G1 X87.980 Y92.340 E007.099
G1 X88.350 Y91.800 E007.138
G1 X89.160 Y90.750 E007.217
G1 X89.650 Y90.200 E007.260
G1 X90.160 Y89.690 E007.303
G1 X90.450 Y89.930 F7800.000
G1 X91.000 Y89.440 E007.347 F630.000
G1 X91.430 Y89.090 E007.380
G1 X92.020 Y88.650 E007.423
G1 X92.540 Y88.300 E007.460
G1 X93.170 Y87.920 E007.504
G1 X93.750 Y87.610 E007.543
G1 X94.410 Y87.300 E007.586
G1 X94.980 Y87.070 E007.623
G1 X96.250 Y86.640 E007.702
G1 X96.960 Y86.460 E007.746
G1 X97.580 Y86.340 E007.783
G1 X98.310 Y86.230 E007.827
G1 X98.990 Y86.160 E007.867
G1 X99.690 Y86.130 E007.909
G1 X100.250 Y86.130 E007.942
G1 X100.990 Y86.160 E007.986
G1 X101.680 Y86.230 E008.027
G1 X102.410 Y86.340 E008.071
G1 X103.030 Y86.460 E008.108
G1 X103.740 Y86.640 E008.152
G1 X104.310 Y86.820 E008.187
G1 X105.010 Y87.070 E008.231
G1 X105.580 Y87.300 E008.268
G1 X106.240 Y87.610 E008.311
G1 X106.820 Y87.920 E008.350
G1 X107.450 Y88.300 E008.394
G1 X107.970 Y88.650 E008.431
G1 X108.560 Y89.090 E008.474
G1 X108.990 Y89.440 E008.507
G1 X109.540 Y89.930 E008.551
G1 X110.060 Y90.450 E008.595
G1 X110.550 Y91.000 E008.638
G1 X110.900 Y91.430 E008.671
G1 X111.340 Y92.020 E008.715
G1 X111.690 Y92.540 E008.752
G1 X112.070 Y93.170 E008.796
G1 X112.380 Y93.750 E008.835
G1 X112.690 Y94.410 E008.878
G1 X112.920 Y94.980 E008.914
G1 X113.350 Y96.250 E008.994
G1 X113.530 Y96.960 E009.037
G1 X113.650 Y97.580 E009.075
G1 X113.760 Y98.310 E009.118
G1 X113.820 Y98.910 E009.154
G1 X113.860 Y99.640 E009.198
G1 X113.870 Y100.330 E009.239
G1 X113.830 Y101.070 E009.282
G1 X113.760 Y101.680 E009.319
G1 X113.650 Y102.410 E009.363
G1 X113.530 Y103.030 E009.400
G1 X113.350 Y103.740 E009.444
G1 X113.170 Y104.310 E009.479
G1 X112.920 Y105.010 E009.523
G1 X112.690 Y105.580 E009.559
G1 X112.380 Y106.240 E009.603
G1 X112.070 Y106.820 E009.642
G1 X111.690 Y107.450 E009.685
G1 X111.340 Y107.970 E009.723
G1 X110.900 Y108.560 E009.766
G1 X110.550 Y108.990 E009.799
G1 X110.060 Y109.540 E009.843
G1 X109.540 Y110.060 E009.886
G1 X108.990 Y110.550 E009.930
G1 X108.560 Y110.900 E009.963
G1 X107.970 Y111.340 E010.007
G1 X107.450 Y111.690 E010.044
G1 X106.820 Y112.070 E010.087
G1 X106.240 Y112.380 E010.126
G1 X105.580 Y112.690 E010.170
G1 X105.010 Y112.920 E010.206
G1 X103.740 Y113.350 E010.286
G1 X103.030 Y113.530 E010.329
G1 X102.410 Y113.650 E010.366
G1 X101.070 Y113.830 E010.447
G1 X100.330 Y113.870 E010.491
G1 X99.640 Y113.860 E010.531
G1 X98.910 Y113.820 E010.575
G1 X98.310 Y113.760 E010.611
G1 X97.580 Y113.650 E010.654
G1 X96.960 Y113.530 E010.692
G1 X96.250 Y113.350 E010.735
G1 X95.680 Y113.170 E010.771
G1 X94.980 Y112.920 E010.815
G1 X94.410 Y112.690 E010.851
G1 X93.750 Y112.380 E010.894
G1 X93.170 Y112.070 E010.933
G1 X92.540 Y111.690 E010.977
G1 X92.020 Y111.340 E011.014
G1 X91.430 Y110.900 E011.058
G1 X91.000 Y110.550 E011.091
G1 X90.450 Y110.060 E011.134
G1 X89.930 Y109.540 E011.178
G1 X89.440 Y108.990 E011.222
G1 X89.090 Y108.560 E011.255
G1 X88.650 Y107.970 E011.298
G1 X88.300 Y107.450 E011.335
G1 X87.920 Y106.820 E011.379
G1 X87.610 Y106.240 E011.418
G1 X87.300 Y105.580 E011.461
G1 X87.070 Y105.010 E011.498
G1 X86.640 Y103.740 E011.577
G1 X86.460 Y103.030 E011.621
G1 X86.340 Y102.410 E011.658
G1 X86.230 Y101.680 E011.702
G1 X86.160 Y100.990 E011.743
G1 X86.130 Y99.730 E011.818
G1 X86.160 Y99.000 E011.861
G1 X86.230 Y98.310 E011.902
G1 X86.340 Y97.580 E011.946
G1 X86.460 Y96.960 E011.983
G1 X86.640 Y96.250 E012.027
G1 X86.820 Y95.680 E012.062
G1 X87.070 Y94.980 E012.106
G1 X87.300 Y94.410 E012.143
G1 X87.610 Y93.750 E012.186
G1 X87.920 Y93.170 E012.225
G1 X88.300 Y92.540 E012.269
G1 X88.650 Y92.020 E012.306
G1 X89.090 Y91.430 E012.349
G1 X89.440 Y91.000 E012.382
G1 X89.930 Y90.450 E012.426
G1 X90.410 Y89.970 E012.466
G1 F1800.000 E010.466
G92 E000.000
G1 X95.627 Y95.627 F7800.000
G1 E002.000 F1800.000
G1 X96.076 Y95.219 E002.036 F540.000
G1 X96.564 Y94.857 E002.072
G1 X97.084 Y94.545 E002.108
G1 X97.633 Y94.286 E002.144
G1 X98.205 Y94.081 E002.180
G1 X98.793 Y93.934 E002.216
G1 X99.394 Y93.845 E002.252
G1 X100.000 Y93.815 E002.288
G1 X100.606 Y93.845 E002.324
G1 X101.207 Y93.934 E002.360
G1 X101.795 Y94.081 E002.396
G1 X102.367 Y94.286 E002.432
G1 X102.916 Y94.545 E002.468
G1 X103.436 Y94.857 E002.504
G1 X103.924 Y95.219 E002.540
G1 X104.373 Y95.627 E002.576
G1 X104.781 Y96.076 E002.612
G1 X105.143 Y96.564 E002.648
G1 X105.455 Y97.084 E002.684
G1 X105.714 Y97.633 E002.720
G1 X105.919 Y98.205 E002.756
G1 X106.066 Y98.793 E002.792
G1 X106.155 Y99.394 E002.828
G1 X106.185 Y100.000 E002.864
G1 X106.155 Y100.606 E002.900
G1 X106.066 Y101.207 E002.936
G1 X105.919 Y101.795 E002.972
G1 X105.714 Y102.367 E003.008
G1 X105.455 Y102.916 E003.044
G1 X105.143 Y103.436 E003.080
G1 X104.781 Y103.924 E003.116
G1 X104.373 Y104.373 E003.152
G1 X103.924 Y104.781 E003.188
G1 X103.436 Y105.143 E003.224
G1 X102.916 Y105.455 E003.260
G1 X102.367 Y105.714 E003.296
G1 X101.795 Y105.919 E003.332
G1 X101.207 Y106.066 E003.368
G1 X100.606 Y106.155 E003.404
G1 X100.000 Y106.185 E003.440
G1 X99.394 Y106.155 E003.476
G1 X98.793 Y106.066 E003.512
G1 X98.205 Y105.919 E003.548
G1 X97.633 Y105.714 E003.584
G1 X97.084 Y105.455 E003.620
G1 X96.564 Y105.143 E003.656
G1 X96.076 Y104.781 E003.692
G1 X95.627 Y104.373 E003.728
G1 X95.219 Y103.924 E003.764
G1 X94.857 Y103.436 E003.800
G1 X94.545 Y102.916 E003.836
G1 X94.286 Y102.367 E003.872
G1 X94.081 Y101.795 E003.908
G1 X93.934 Y101.207 E003.944
G1 X93.845 Y100.606 E003.979
G1 X93.815 Y100.000 E004.015
G1 X93.845 Y99.394 E004.051
G1 X93.934 Y98.793 E004.087
G1 X94.081 Y98.205 E004.123
G1 X94.286 Y97.633 E004.159
G1 X94.545 Y97.084 E004.195
G1 X94.857 Y96.564 E004.231
G1 X95.219 Y96.076 E004.267
G1 X95.589 Y95.668 E004.300
G1 X95.362 Y95.362 F7800.000
G1 X95.839 Y94.929 E004.338 F630.000
G1 X96.356 Y94.546 E004.376
G1 X96.908 Y94.215 E004.415
G1 X97.490 Y93.940 E004.453
G1 X98.096 Y93.723 E004.491
G1 X98.720 Y93.566 E004.529
G1 X99.357 Y93.472 E004.567
G1 X100.000 Y93.440 E004.605
G1 X100.643 Y93.472 E004.644
G1 X101.280 Y93.566 E004.682
G1 X101.904 Y93.723 E004.720
G1 X102.510 Y93.940 E004.758
G1 X103.092 Y94.215 E004.796
G1 X103.644 Y94.546 E004.834
G1 X104.161 Y94.929 E004.873
G1 X104.638 Y95.362 E004.911
G1 X105.071 Y95.839 E004.949
G1 X105.454 Y96.356 E004.987
G1 X105.785 Y96.908 E005.025
G1 X106.060 Y97.490 E005.063
G1 X106.277 Y98.096 E005.102
G1 X106.434 Y98.720 E005.140
G1 X106.528 Y99.357 E005.178
G1 X106.560 Y100.000 E005.216
G1 X106.528 Y100.643 E005.254
G1 X106.434 Y101.280 E005.293
G1 X106.277 Y101.904 E005.331
G1 X106.060 Y102.510 E005.369
G1 X105.785 Y103.092 E005.407
G1 X105.454 Y103.644 E005.445
G1 X105.071 Y104.161 E005.483
G1 X104.638 Y104.638 E005.522
G1 X104.161 Y105.071 E005.560
G1 X103.644 Y105.454 E005.598
G1 X103.092 Y105.785 E005.636
G1 X102.510 Y106.060 E005.674
G1 X101.904 Y106.277 E005.712
G1 X101.280 Y106.434 E005.751
G1 X100.643 Y106.528 E005.789
G1 X100.000 Y106.560 E005.827
G1 X99.357 Y106.528 E005.865
G1 X98.720 Y106.434 E005.903
G1 X98.096 Y106.277 E005.941
G1 X97.490 Y106.060 E005.980
G1 X96.908 Y105.785 E006.018
G1 X96.356 Y105.454 E006.056
G1 X95.839 Y105.071 E006.094
G1 X95.362 Y104.638 E006.132
G1 X94.929 Y104.161 E006.170
G1 X94.546 Y103.644 E006.209
G1 X94.215 Y103.092 E006.247
G1 X93.940 Y102.510 E006.285
G1 X93.723 Y101.904 E006.323
G1 X93.566 Y101.280 E006.361
G1 X93.472 Y100.643 E006.400
G1 X93.440 Y100.000 E006.438
G1 X93.472 Y99.357 E006.476
G1 X93.566 Y98.720 E006.514
G1 X93.723 Y98.096 E006.552
G1 X93.940 Y97.490 E006.590
G1 X94.215 Y96.908 E006.629
G1 X94.546 Y96.356 E006.667
G1 X94.929 Y95.839 E006.705
G1 X95.324 Y95.403 E006.740
G1 X95.090 Y95.104 F7800.000
G1 X95.601 Y94.640 E006.781 F630.000
G1 X96.147 Y94.234 E006.821
G1 X96.731 Y93.884 E006.861
G1 X97.346 Y93.593 E006.902
G1 X97.987 Y93.364 E006.942
G1 X98.647 Y93.199 E006.982
G1 X99.320 Y93.099 E007.023
G1 X100.000 Y93.066 E007.063
G1 X100.680 Y93.099 E007.103
G1 X101.353 Y93.199 E007.144
G1 X102.013 Y93.364 E007.184
G1 X102.654 Y93.593 E007.225
G1 X103.269 Y93.884 E007.265
G1 X103.853 Y94.234 E007.305
G1 X104.399 Y94.640 E007.346
G1 X104.903 Y95.097 E007.386
G1 X105.360 Y95.601 E007.426
G1 X105.766 Y96.147 E007.467
G1 X106.116 Y96.731 E007.507
G1 X106.407 Y97.346 E007.547
G1 X106.636 Y97.987 E007.588
G1 X106.801 Y98.647 E007.628
G1 X106.901 Y99.320 E007.668
G1 X106.934 Y100.000 E007.709
G1 X106.901 Y100.680 E007.749
G1 X106.801 Y101.353 E007.789
G1 X106.636 Y102.013 E007.830
G1 X106.407 Y102.654 E007.870
G1 X106.116 Y103.269 E007.911
G1 X105.766 Y103.853 E007.951
G1 X105.360 Y104.399 E007.991
G1 X104.903 Y104.903 E008.032
G1 X104.399 Y105.360 E008.072
G1 X103.853 Y105.766 E008.112
G1 X103.269 Y106.116 E008.153
G1 X102.654 Y106.407 E008.193
G1 X102.013 Y106.636 E008.233
G1 X101.353 Y106.801 E008.274
G1 X100.680 Y106.901 E008.314
G1 X100.000 Y106.934 E008.354
G1 X99.320 Y106.901 E008.395
G1 X98.647 Y106.801 E008.435
G1 X97.987 Y106.636 E008.475
G1 X97.346 Y106.407 E008.516
G1 X96.731 Y106.116 E008.556
G1 X96.147 Y105.766 E008.597
G1 X95.601 Y105.360 E008.637
G1 X95.097 Y104.903 E008.677
G1 X94.640 Y104.399 E008.718
G1 X94.234 Y103.853 E008.758
G1 X93.884 Y103.269 E008.798
G1 X93.593 Y102.654 E008.839
G1 X93.364 Y102.013 E008.879
G1 X93.199 Y101.353 E008.919
G1 X93.099 Y100.680 E008.960
G1 X93.066 Y100.000 E009.000
G1 X93.099 Y99.320 E009.040
G1 X93.199 Y98.647 E009.081
G1 X93.364 Y97.987 E009.121
G1 X93.593 Y97.346 E009.161
G1 X93.884 Y96.731 E009.202
G1 X94.234 Y96.147 E009.242
G1 X94.640 Y95.601 E009.283
G1 X95.052 Y95.145 E009.319
G1 X94.813 Y94.852 F7800.000
G1 X95.363 Y94.350 E009.363 F441.000
G1 X95.939 Y93.923 E009.406
G1 X96.554 Y93.554 E009.448
G1 X97.203 Y93.247 E009.491
G1 X97.878 Y93.005 E009.533
G1 X98.574 Y92.831 E009.576
G1 X99.284 Y92.726 E009.618
G1 X100.000 Y92.691 E009.661
G1 X100.716 Y92.726 E009.703
G1 X101.426 Y92.831 E009.746
G1 X102.122 Y93.005 E009.788
G1 X102.797 Y93.247 E009.831
G1 X103.446 Y93.554 E009.874
G1 X104.061 Y93.923 E009.916
G1 X104.637 Y94.350 E009.959
G1 X105.168 Y94.832 E010.001
G1 X105.650 Y95.363 E010.044
G1 X106.077 Y95.939 E010.086
G1 X106.446 Y96.554 E010.129
G1 X106.753 Y97.203 E010.171
G1 X106.995 Y97.878 E010.214
G1 X107.169 Y98.574 E010.256
G1 X107.274 Y99.284 E010.299
G1 X107.309 Y100.000 E010.341
G1 X107.274 Y100.716 E010.384
G1 X107.169 Y101.426 E010.427
G1 X106.995 Y102.122 E010.469
G1 X106.753 Y102.797 E010.512
G1 X106.446 Y103.446 E010.554
G1 X106.077 Y104.061 E010.597
G1 X105.650 Y104.637 E010.639
G1 X105.168 Y105.168 E010.682
G1 X104.637 Y105.650 E010.724
G1 X104.061 Y106.077 E010.767
G1 X103.446 Y106.446 E010.809
G1 X102.797 Y106.753 E010.852
G1 X102.122 Y106.995 E010.894
G1 X101.426 Y107.169 E010.937
G1 X100.716 Y107.274 E010.979
G1 X100.000 Y107.309 E011.022
G1 X99.284 Y107.274 E011.065
G1 X98.574 Y107.169 E011.107
G1 X97.878 Y106.995 E011.150
G1 X97.203 Y106.753 E011.192
G1 X96.554 Y106.446 E011.235
G1 X95.939 Y106.077 E011.277
G1 X95.363 Y105.650 E011.320
G1 X94.832 Y105.168 E011.362
G1 X94.350 Y104.637 E011.405
G1 X93.923 Y104.061 E011.447
G1 X93.554 Y103.446 E011.490
G1 X93.247 Y102.797 E011.532
G1 X93.005 Y102.122 E011.575
G1 X92.831 Y101.426 E011.617
G1 X92.726 Y100.716 E011.660
G1 X92.691 Y100.000 E011.703
G1 X92.726 Y99.284 E011.745
G1 X92.831 Y98.574 E011.788
G1 X93.005 Y97.878 E011.830
G1 X93.247 Y97.203 E011.873
G1 X93.554 Y96.554 E011.915
G1 X93.923 Y95.939 E011.958
G1 X94.350 Y95.363 E012.000
G1 X94.775 Y94.894 E012.038
G1 X95.173 Y94.954 F7800.000
G1 X102.426 Y94.603 F7800.000
G1 X105.397 Y97.574 E012.292 F1080.000
G1 X105.703 Y98.419 F7800.000
G1 X101.581 Y94.297 E012.644 F1080.000
G1 X100.896 Y94.152 E012.686
G1 X105.848 Y99.104 E013.109
G1 X105.909 Y99.704 E013.146
G1 X100.296 Y94.091 E013.626
